X:1
T:5. Benedictus
T: Johan August Söderman (1832 - 1876)
T:Andeliga Sånger (1872)
T:5. Benedictus
T:Coro
C:Johan August Söderman
C:(1832 - 1876)
%%score [ ( 1 2 ) ( 3 4 ) ( 5 6 ) ( 7 8 ) ]
L:1/8
Q:1/4=72
M:3/4
K:E
V:1 treble nm="Soprano" snm="S"
V:2 treble 
V:3 treble nm="Alto" snm="A"
V:4 treble 
V:5 treble-8 nm="Tenore" snm="T"
V:6 treble-8 
V:7 bass nm="Basso" snm="B"
V:8 bass 
V:1
!p!"^Andante" B4 B2 |!<(! c4!<)! c2 |!>(! B4 A2!>)! | A2 G2 z2 | z6 | z6 | z6 | z6 |!mf! c4 c2 | %9
w: Be- ne-|di- ctus,|Be- ne-|di- ctus|||||Be- ne-|
 F4 F2 | B4 B2 | E4 E2 | A6- | A4 B2 |!f! A4 G z/ G/ | (3GGG (3GGG (3:2:4GGG/G/ | %16
w: di- ctus,|Be- ne-|di- ctus,|Be-|* ne-|di- ctus qui|ve- nit in no- mi- ne Do- mi- ni, qui|
 (3GGG (3GGG (3:2:4GGG/G/ | (3GGG (3GGG (3:2:4GGG/G/ | (3GGG (3G!>(!GG (3G!>)!GG | (3GGG z2 z2 | %20
w: ve- nit in no- mi- ne Do- mi- ni, qui|ve- nit in no- mi- ne Do- mi- ni, qui|ve- nit in no- mi- ne Do- mi- ni,|Do- mi- ni|
!pp!"^sostenuto" =G4 G2 | G2 z2 z2 | =G4 G2 | G2 z2 z2 |!p!"^dolce" B4 B2 |!<(! c4 c2!<)! | %26
w: Do- mi-|ni,|Do- mi-|ni,|Be- ne-|di- ctus,|
 (B3 F)!>(! (GA)!>)! | A2 G2 z2 |!<(! (G6!<)!"^molto cresc." | A4)!>(! A2 | (G3!>)! F EF) | %31
w: Be- * ne- *|di- ctus,|Be-|* ne-|di- * * *|
 E2 z2 z2 |!f!"^marcato" B>e !>!f2 e z |!p! B>e !>!f2 e z/ G/ | (3GGG!>(! (3GGG!>)!"^rall." (3GGG | %35
w: ctus,|Be- ne- di- ctus,|Be- ne- di- ctus qui|ve- nit, qui ve- nit in no- mi- ne|
!pp! G>G !fermata!G4 |] %36
w: Do- mi- ni.|
V:2
 x6 | G4 F2 | F4 F2 | F2 G2 z2 | x6 | x6 | x6 | x6 | x6 | x6 | x6 | x6 | x6 | x6 | x6 | x6 | x6 | %17
 x6 | x6 | x6 | D4 D2 | D2 z2 z2 | E4 E2 | E2 z2 z2 | x6 | x6 | x6 | x6 | E6- | E4 E2 | x6 | x6 | %32
 x6 | B>e !>!f2 e z/ E/ | (3EEE (3EEE (3EEE | E>E !fermata!E4 |] %36
V:3
!p! G4 G2 |!<(! E4!<)! E2 |!>(! (E3 D) (C!>)!D) | D2 E2 z2 | z6 | z6 | z6 | z6 |!mf! E4 E2 | %9
w: Be- ne-|di- ctus,|Be- * ne- *|di- ctus|||||Be- ne-|
 (E3 D) (CD) | D4 D2 | (D3 C) (^B,C) | C4 C2 | (E3 D CD |!f! E4) E z/ G/ | %15
w: di- * ctus, _|Be- ne-|di- * ctus, _|Be- ne-|di- * * *|* ctus qui|
 (3GGG (3GGG (3:2:4GGG/G/ | (3GGG (3GGG (3:2:4GGG/G/ | (3GGG (3GGG (3:2:4GGG/G/ | %18
w: ve- nit in no- mi- ne Do- mi- ni, qui|ve- nit in no- mi- ne Do- mi- ni, qui|ve- nit in no- mi- ne Do- mi- ni, qui|
 (3GGG (3G!>(!GG (3G!>)!GG | (3GGG z2 z2 |!pp!"^sostenuto" ^B,4 B,2 | ^B,2 z2 z2 | ^B,4 B,2 | %23
w: ve- nit in no- mi- ne Do- mi- ni,|Do- mi- ni|Do- mi-|ni,|Do- mi-|
 B,2 z2 z2 |!p!"^dolce" E4 E2 |!<(! E4 E2!<)! | D4!>(! D2!>)! | E2 E2 z2 | %28
w: ni,|Be- ne-|di- ctus,|Be- ne-|di- ctus,|
!<(! C6-!<)!"^molto cresc." | C4!>(! C2 | (E3!>)! D CD) | E2 z2 z2 |!f!"^marcato" E>G !>!B2 G z | %33
w: Be-|* ne-|di- * * *|ctus,|Be- ne- di- ctus,|
!p! E>G !>!B2 G z/ B,/ | (3B,B,B,!>(! (3B,B,!>)!B, (3B,B,B, |!pp! B,>B, !fermata!B,4 |] %36
w: Be- ne- di- ctus qui|ve- nit, qui ve- nit in no- mi- ne|Do- mi- ni.|
V:4
 E4 E2 | A,4 A,2 | B,4 B,2 | B,2 E2 z2 | x6 | x6 | x6 | x6 | x6 | x6 | x6 | x6 | x6 | x6 | x6 | %15
 x6 | x6 | x6 | x6 | x6 | x6 | x6 | x6 | x6 | x6 | x6 | x6 | x6 | x6 | x6 | x6 | x6 | x6 | x6 | %34
 x6 | x6 |] %36
V:5
 z6 | z6 | z6 | z6 |!p! G4 G2 |!<(! A4 A2!<)! |!>(! G4 F2!>)! | F2 E2 z2 |!mf! c4 c2 | B4 B2 | %10
w: ||||Be- ne-|di- ctus,|Be- ne-|di- ctus,|Be- ne-|di- ctus,|
 B4 B2 | A4 A2 | A6- | A4 A2 | B4 B z | z6 |!ff!"^marcato" B>e f2 e z | B>e f2 e z | %18
w: Be- ne-|di- ctus,|Be-|* ne-|di- ctus||Be- ne- di- ctus,|Be- ne- di- ctus,|
 e>e (d2!>(! c2)!>)! | ^B z z2 z2 | z6 | z6 | z6 | z6 |!p!"^dolce" B4 B2 |!<(! A4 A2!<)! | %26
w: Be- ne- di- *|ctus|||||Be- ne-|di- ctus,|
 B4!>(! B2!>)! | B2 B2 z2 |!<(! (G6!<)!"^molto cresc." | F4)!>(! A2 | B6!>)! | %31
w: Be- ne-|di- ctus,|Be-|* ne-|di-|
!mf! B z/ e/ (3eee (3eee | (3:2:4eee/e/ (3eee (3eee |!p! (3:2:4eee/e/ (3eee (3:2:4eee/G/ | %34
w: ctus, qui ve- nit in no- mi- ne|Do- mi- ni, qui ve- nit in no- mi- ne|Do- mi- ni,- in no- mi- ne Do- mi- ni, qui|
 (3GGG!>(! (3GGG!>)! (3GGG |!pp! G>G !fermata!G4 |] %36
w: ve- nit, qui ve- nit in no- mi- ne|Do- mi- ni.|
V:6
 x6 | x6 | x6 | x6 | x6 | E4 D2 | D4 D2 | D2 E2 z2 | A4 A2 | A4 A2 | G4 G2 | G4 G2 | F6- | A4 A2 | %14
 x6 | x6 | x6 | x6 | x6 | x6 | x6 | x6 | x6 | x6 | G4 G2 | F4 F2 | (F3 A) (GF) | x6 | (G6 | %29
 F4) F2 | A6 | G z/ e/ (3eee (3eee | x6 | (3:2:4eee/e/ (3eee (3:2:4eee/E/ | (3EEE (3EEE (3EEE | %35
 E>E !fermata!E4 |] %36
V:7
 z6 | z6 | z6 | z6 |!p! E,4 E,2 |!<(! C,4 C,2!<)! |!>(! (C,3 ^B,,) (^A,,!>)!B,,) | ^B,,2 C,2 z2 | %8
w: ||||Be- ne-|di- ctus,|Be- * ne- *|di- ctus,|
!mf! A,,4 A,,2 | A,,4 A,,2 | G,,4 G,,2 | G,,4 G,,2 | (F,,6 | B,,4) B,,2 | E,4 E, z | z6 | %16
w: Be- ne-|di- ctus,|Be- ne-|di- ctus,|Be-|* ne-|di- ctus||
!ff!"^marcato" E,>G, B,2 G, z | E,>G, B,2 G, z | G,>G, (F,2!>(! E,2)!>)! | %19
w: Be- ne- di- ctus,|Be- ne- di- ctus,|Be- ne- di- *|
!p! D, z/ G,,/ (3G,,G,,G,, (3G,,G,,G,, | z6 | z z/ G,,/ (3G,,G,,G,, (3G,,G,,G,, | z6 | %23
w: ctus qui ve- nit in no- mi- ne||qui ve- nit in no- mi- ne||
 z z/ B,,/ (3B,,B,,B,, (3B,,B,,B,, |!p!"^dolce" B,,4 B,,2 |!<(! B,,4!<)! B,,2 | B,,4!>(! B,,2!>)! | %27
w: in no- mi- ne Do- mi- ni|Be- ne-|di- ctus,|Be- ne-|
 E,2 E,2 z2 |!<(! C,6-!<)!"^molto cresc." | C,4!>(! C,2!>)! | B,,6 | %31
w: di- ctus,|Be-|* ne-|di-|
!mf! E, z/ E,/ (3E,E,E, (3E,E,E, | (3:2:4E,E,E,/E,/ (3E,E,E, (3E,E,E, | %33
w: ctus, qui ve- nit in no- mi- ne|Do- mi- ni, qui ve- nit in no- mi- ne|
!p! (3:2:4E,E,E,/E,/ (3E,E,E, (3:2:4E,E,E,/B,,/ | (3B,,B,,B,,!>(! (3B,,B,,B,,!>)! (3B,,B,,B,, | %35
w: Do- mi- ni, in no- mi- ne Do- mi- ni, qui|ve- nit, qui ve- nit in no- mi- ne|
!pp! B,,>B,, !fermata!B,,4 |] %36
w: Do- mi- ni.|
V:8
 x6 | x6 | x6 | x6 | C,4 C,2 | F,,4 F,,2 | G,,4 G,,2 | G,,2 C,2 z2 | x6 | x6 | x6 | x6 | x6 | x6 | %14
 x6 | x6 | x6 | x6 | x6 | x6 | x6 | x6 | x6 | x6 | x6 | x6 | x6 | x6 | (C,6 | F,,4) F,,2 | x6 | %31
 x6 | x6 | (3:2:4E,E,E,/E,/ (3E,E,E, (3:2:4E,E,E,/E,,/ | (3E,,E,,E,, (3E,,E,,E,, (3E,,E,,E,, | %35
 E,,>E,, !fermata!E,,4 |] %36

